!! 00026] TT[TB
!! Eigene Aufnahme
!!!OTL: Meilide gu niang 
!!!ARE: Xinjiang, Yili
!! Ethnic Group: Hasake
!! IV, 501
!!!SCT: C0432
!!!YEM: Copyright 1995, estate of Helmut Schaffrath.
**kern
*ICvox
*Ivox
!! Mixed meters:  2/4; 3/4
*M3/4
*k[f#]
*G:
{8dd
16dd
16dd
8gg
8ff#
=1
8ee
8ff#
8gg
8ee
4dd}
=2
{8dd
8dd
8gg
8ff#
8ee
16ff#
16aa
=3
*M2/4
[2gg
=4
2gg]}
=5
{8dd
8dd
8.gg
16ff#
=6
*M3/4
8ee
16ff#
16ff#
8gg
8ee
8dd
8b}
=7
*M2/4
{8dd
16dd
16dd
8.ee
16dd
=8
8.b
16g
16a
16b
16a
16f#
=9
[2g
=10
2g]}
=11
{8dd
16dd
16dd
8gg
8ff#
=12
*M3/4
8ee
8ff#
8gg
8ee
4dd}
=13
{8dd
8dd
8gg
8ff#
8ee
16ff#
16aa
=14
*M2/4
[2g
=15
2g]}
=16
{8dd
8dd
8.gg
16ff#
=17
*M3/4
8ee
16ff#
16ff#
8gg
8ee
8dd
8b}
=18
*M2/4
{8dd
16dd
16dd
8.ee
16dd
=19
8.b
16g
16a
16b
16a
16f#
=20
[2g
=21
2g]}
=22
*M3/4
{8g
8g
4ee
4dd}
=23
*M2/4
{16ee
16gg
16ee
16dd
8b
16b
16b
=24
8a
8b
8cc
16dd
16cc
=25
*M3/4
8.b
16g
16a
16b
16a
16f#
4g}
=26
{8g
8g
4ee
4dd}
=27
*M2/4
{16ee
16gg
16ee
16dd
8b
16b
16b
=28
8a
8b
8cc
16dd
16cc
=29
8.b
16g
16a
16b
16a
16f#
=30
[2g
=31
2g]}
==
!!!AGN: Qingge
!! Wird oft vorgespielt.
!!    Die Saengerin Lei Huilan ist Angehoerige der Zhuang Minderheit und
!!    studiert an der Guangzhouer Musikhochschule.
!!    Aufgenommen am 5.5.87
!!    Vorspiel weggelassen.
!!!ONB: ESAC (Essen Associative Code) Database: CHINA_021
!!!AMT: irregular
!!!AIN: vox
!!!EED: Helmut Schaffrath
!!!EEV: 1.0
*-
!!!ONB: Tied note syntax fixed by Craig Sapp, 2004/05/03/
